X: 2
T: Dr. Gilbert's
R: reel
M: 4/4
L: 1/8
K: Edor
gf||eBBA ~B3c|dBAd BAGF|EDB,D G2FG|EDB,E DB,A,B,|DEED EDB,D|FEED EFGA|(3Bcd ed Bdgb|1afdf efgf:|2afdf e^def||eB~B2 gB~B2|defa afdf|g2bg fbaf|e^def edBa|afdf edBc|(3dcB AF AFDF|(3EFG =cA Bdgb|1afdf e^def:|2afdf efgf||


Tune 129	Setting 12735

